X: 0
T: Maggie West's
C: Mairearad Green
M: 3/4
L: 1/8
K: Gmaj
D GA|: "G"B3 B AG|"C"E G2 D GA|"G"B d2 g g/a/b|"D"a3 a ga|
"C"g e2 e ge|"G"d3 B AG|1"D" A2 AB B/A/G|A3 D GA:|2 "D"A3 B GF|"G"G3 d B/A/G||
|: "G"A G2 d B/A/G|A G2 d B/A/G|AB dg- g/a/b|"D"a3 a ga|
"C"g e2 e ge|"G"d3 B AG|1 "Am"A2 AB B/A/G|"D"A3 d B/A/G:|2 "D"A3 B GF|"G"G4|]